X:1
T:The Earl o' Aboyne (2)
M:2/4
L:1/4
K:D
 E| F F3/4 F/4| d c3/4- B/4| d F| E D3/4- E/4| FF/2-A/2| FE/2-F/2|\
 A B/2E/2| F F3/4 F/4| d c3/4 B/4| d F3/4 E/4| F D3/4- E/4| F F/4- A3/4|\
 F E3/4 F/4| A B|
